X: 19510
T: Jacky Tar
R: hornpipe
M: 4/4
K: Eminor
Bd|:e3d efge|dBBA B2dB|ABde faef|dedB BA B/c/d|
e3f g2 fe|dBBA BcdB|A2 BA GAFA|1 G2 E2E2 B/c/d:|2 G2 E2 E2 -EB,||
|:EGBd E/F/G Bd|EGBd BGFE|DFAB A2 FA|d^cBA GFEB,|
EGBA B/c/d gd|B2 BA BcdB|A2 BA GAFA|1 G2 E2 E2-EB,:|2 G2 E2 E2||

